X: 22191
T: La Berceuse
R: reel
M: 4/4
K: Dmajor
|:BE~E2BAFA|BAGF EGFE|FD~F2 AD~D2|FDAD BAFA|
BE~E2BAFA|BAGF EABe|dBAF DEFA|BFAF EFGA:|
|:Beed e2de|gfed BedB|dA ~A2 fA~A2|dA~A2 fedB|
Beed e2de|gfed BedB|dBAF DEFA|BFAF EFGA:|

